static/card-icons/table.svg

<svg viewBox="0 0 512 512" xmlns="http://www.w3.org/2000/svg"><path d="m467.692 44.308h-423.384c-24.432 0-44.308 19.876-44.308 44.307v334.769c0 24.431 19.876 44.308 44.308 44.308h423.385c24.431 0 44.308-19.876 44.308-44.308v-334.769c-.001-24.431-19.877-44.307-44.309-44.307zm-344.615 393.846h-78.769c-8.144 0-14.769-6.625-14.769-14.769v-47.589h93.538zm0-91.898h-93.539v-62.359h93.538v62.359zm0-91.897h-93.539v-62.359h93.538v62.359zm123.077 183.795h-93.539v-62.359h93.539zm0-91.898h-93.539v-62.359h93.539zm0-91.897h-93.539v-62.359h93.539zm123.077 183.795h-93.538v-62.359h93.538zm0-91.897h-93.538v-62.359h93.538zm0-91.898h-93.538v-62.359h93.538zm113.231 169.026c0 8.144-6.625 14.769-14.769 14.769h-68.923v-62.359h83.692zm0-77.129h-83.692v-62.359h83.692zm0-91.897h-83.692v-62.359h83.692zm0-91.897h-452.924v-73.847c0-8.144 6.625-14.769 14.769-14.769h423.385c8.144 0 14.769 6.625 14.769 14.769v73.847z"/></svg>

<?xml version="1.0" encoding="iso-8859-1"?>
<!-- Generator: Adobe Illustrator 19.0.0, SVG Export Plug-In . SVG Version: 6.00 Build 0)  -->
<svg version="1.1" id="Capa_1" xmlns="http://www.w3.org/2000/svg" xmlns:xlink="http://www.w3.org/1999/xlink" x="0px" y="0px"
	 viewBox="0 0 512 512" style="enableBackground:new 0 0 512 512;" xml:space="preserve">
<g>
	<g>
		<path d="M467.692,44.308H44.308C19.876,44.308,0,64.184,0,88.615v334.769c0,24.431,19.876,44.308,44.308,44.308h423.385
			c24.431,0,44.308-19.876,44.308-44.308V88.615C512,64.184,492.124,44.308,467.692,44.308z M123.077,438.154H44.308
			c-8.144,0-14.769-6.625-14.769-14.769v-47.589h93.538V438.154z M123.077,346.256H29.538v-62.359h93.538V346.256z M123.077,254.359
			H29.538V192h93.538V254.359z M246.154,438.154h-93.539v-62.359h93.539V438.154z M246.154,346.256h-93.539v-62.359h93.539V346.256z
			 M246.154,254.359h-93.539V192h93.539V254.359z M369.231,438.154h-93.538v-62.359h93.538V438.154z M369.231,346.257h-93.538
			v-62.359h93.538V346.257z M369.231,254.359h-93.538V192h93.538V254.359z M482.462,423.385c0,8.144-6.625,14.769-14.769,14.769
			h-68.923v-62.359h83.692V423.385z M482.462,346.256h-83.692v-62.359h83.692V346.256z M482.462,254.359h-83.692V192h83.692V254.359
			z M482.462,162.462H29.538V88.615c0-8.144,6.625-14.769,14.769-14.769h423.385c8.144,0,14.769,6.625,14.769,14.769V162.462z"/>
	</g>
</g>
<g>
</g>
<g>
</g>
<g>
</g>
<g>
</g>
<g>
</g>
<g>
</g>
<g>
</g>
<g>
</g>
<g>
</g>
<g>
</g>
<g>
</g>
<g>
</g>
<g>
</g>
<g>
</g>
<g>
</g>
</svg>
